svgs/light/presentation-screen.svg

<svg xmlns="http://www.w3.org/2000/svg" viewBox="0 0 576 512"><!-- Font Awesome Pro 6.0.0-alpha2 by @fontawesome - https://fontawesome.com License - https://fontawesome.com/license (Commercial License) --><path d="M528 64C519.164 64 512 71.164 512 80V288C512 305.672 497.674 320 480 320H96C78.326 320 64 305.672 64 288V80C64 71.164 56.836 64 48 64S32 71.164 32 80V288C32 323.199 60.801 352 96 352H272V393.375L180.688 484.688C174.438 490.938 174.438 501.063 180.688 507.312S197.063 513.562 203.312 507.312L288 422.625L372.688 507.312C375.812 510.438 379.906 512 384 512S392.188 510.438 395.312 507.312C401.562 501.062 401.562 490.937 395.312 484.688L304 393.375V352H480C515.199 352 544 323.199 544 288V80C544 71.164 536.836 64 528 64ZM560 0H16C7.156 0 0 7.156 0 16S7.156 32 16 32H560C568.844 32 576 24.844 576 16S568.844 0 560 0Z"/></svg>

<svg xmlns="http://www.w3.org/2000/svg" viewBox="0 0 576 512"><!--! Font Awesome Pro 6.4.0 by @fontawesome - https://fontawesome.com License - https://fontawesome.com/license (Commercial License) Copyright 2023 Fonticons, Inc. --><path d="M16 0C7.2 0 0 7.2 0 16s7.2 16 16 16H560c8.8 0 16-7.2 16-16s-7.2-16-16-16H16zM32 64V288c0 35.3 28.7 64 64 64H272v41.4l-91.3 91.3c-6.2 6.2-6.2 16.4 0 22.6s16.4 6.2 22.6 0L288 422.6l84.7 84.7c6.2 6.2 16.4 6.2 22.6 0s6.2-16.4 0-22.6L304 393.4V352H480c35.3 0 64-28.7 64-64V64H512V288c0 17.7-14.3 32-32 32H288 96c-17.7 0-32-14.3-32-32V64H32z"/></svg>
